!!!!SEGMENT: pl-kk--kk-i-3--034_anonim--nuntiemus-nuntium.krn
!!!cenid: 15xx:642
!!!COM: Anonim
!!!COM-rismid: pe30004985
!!!CDT:
!!!CNT:
!!!OTL: Nuntiemus nuntium
!!!PDT:
!!!AGN:
!!!SMS-siglum: PL-Kk
!!!SMS-shelfmark: Kk.I.3
!!!SMS-shelfwork: 034 W
!!!SMS-variant:
!!!SMS-altvar:
!!!NIFC-rismid: 1001145536
!!!URL-scan: http://repozytorium.nifc.pl/skany/pl-kk-nut--i-3
!!!ONB-nifc: UWAGA: Discantus (s. 105r-107v, skan 0107-0110), Tenor (s. 78v-80v, skan 0251-0253), Bassus (s. 102v-104r, skan 0406-0407)
!!!OMD:
!!!key: F
**kern	**text	**text	**kern	**text	**text	**kern	**text	**text
*part3	*part3	*part3	*part2	*part2	*part2	*part1	*part1	*part1
*staff3	*staff3	*staff3	*staff2	*staff2	*staff2	*staff1	*staff1	*staff1
*I"[Bassus]	*	*	*I"[Tenor]	*	*	*I"[Discantus]	*	*
*I'B	*	*	*I'T	*	*	*I'S	*	*
*Ibass	*	*	*Itenor	*	*	*Ivox	*	*
*ICvox	*	*	*ICvox	*	*	*ICvox	*	*
*clefF4	*	*	*clefC4	*	*	*clefC3	*	*
*	*	*	*	*	*	*ok[]	*	*
*k[b-]	*	*	*k[b-]	*	*	*k[b-]	*	*
*F:	*	*	*F:	*	*	*F:	*	*
*M2/1	*	*	*M2/1	*	*	*M2/1	*	*
=1-	=1-	=1-	=1-	=1-	=1-	=1-	=1-	=1-
!	!	!	!	!	!	!LO:TX:t=P:problem:niewiele źródeł tekstowych w Internecie	!	!
!	!	!	!	!	!	!LO:TX:t=P:problem:brak bemola przy kluczu	!	!
1F	Nunc-	Re-	1F	Nunc-	Re-	1f	Nunc-	.
*lig	*	*	*lig	*	*	*lig	*	*
1C	-ci-	-gis	1G	-ci-	-gis	1e	-ci-	.
=2-	=2-	=2-	=2-	=2-	=2-	=2-	=2-	=2-
1D	.	.	1F	.	.	1d	.	.
*Xlig	*	*	*Xlig	*	*	*Xlig	*	*
2C/	-e-	re-	1G	-e-	re-	2e/	-e-	.
1G\	.	.	.	.	.	2d/	.	.
=3-	=3-	=3-	=3-	=3-	=3-	=3-	=3-	=3-
*	*	*	*lig	*	*	*	*	*
.	.	.	1A	.	.	1c	.	.
1F	.	.	.	.	.	.	.	.
.	.	.	1B-	.	.	2d/	.	.
2E/	.	.	.	.	.	2e/	.	.
*	*	*	*Xlig	*	*	*	*	*
=4-	=4-	=4-	=4-	=4-	=4-	=4-	=4-	=4-
*lig	*	*	*	*	*	*	*	*
!	!	!	!	!	!	!LO:SIC:v:t=custos f	!	!
1F	.	.	1A	.	.	2c/	.	.
!	!	!	!	!	!	!LO:LB:g=original	!	!
.	.	.	.	.	.	1f	.	.
1C	.	.	1G	.	.	.	.	.
*	*	*	*	*	*	*2\right	*	*
.	.	.	.	.	.	2e\	.	.
*Xlig	*	*	*	*	*	*	*	*
=5-	=5-	=5-	=5-	=5-	=5-	=5-	=5-	=5-
*lig	*	*	*	*	*	*	*	*
1D	.	.	1F	.	.	2f\	.	.
.	.	.	.	.	.	1d	.	.
!	!	!	!LO:SIC:v:t=custos G	!	!	!	!	!
1AA	.	.	1E	.	.	.	.	.
.	.	.	.	.	.	2c/	.	.
*Xlig	*	*	*	*	*	*	*	*
=6-	=6-	=6-	=6-	=6-	=6-	=6-	=6-	=6-
!LO:SIC:v:t=custos C	!	!	!LO:LB:g=original	!	!	!	!	!
*	*	*	*lig	*	*	*	*	*
2BB-/	-mus	-gum	1G	-mus	-gum	2d/	.	.
!LO:LB:g=original	!	!	!	!	!	!	!	!
2C/	.	.	.	.	.	2e\	-mus	.
1D	.	.	1F	.	.	1f,	.	.
*	*	*	*Xlig	*	*	*	*	*
=7-	=7-	=7-	=7-	=7-	=7-	=7-	=7-	=7-
1BB-	nu(n)-	ga-	1B-	nunc-	ga-	1f	nun-	.
1BB-	-ctium	-bri-	1d	-ci(u)m	-bri-	1f	-cti-	.
=8-	=8-	=8-	=8-	=8-	=8-	=8-	=8-	=8-
1C	.	-el	1c	.	-el	1e	-vm	.
1GG	vo-	quod	1B-	vo-	quod	2d/	vo-	.
!	!	!	!	!	!	!LO:SIC:v:t=custos f	!	!
.	.	.	.	.	.	1g\	-cun-	.
=9-	=9-	=9-	=9-	=9-	=9-	=9-	=9-	=9-
1BB-	-cun-	tul-	1d	-cun-	tul-	.	.	.
!	!	!	!	!	!	!LO:PB:g=original	!	!
.	.	.	.	.	.	2f/	-dvm	lit
1C	-dvm	-lit	0c	-du(m)	-lit	0e	.	vir-
=10-	=10-	=10-	=10-	=10-	=10-	=10-	=10-	=10-
1C	fra-	vir-	.	.	.	.	.	.
!	!	!	!LO:TX:t=P:problem:nieczytelny zapis II tekstu	!	!	!	!	!
1D	.	.	1A	fra-	vir-	1d	fra-	.
=11-	=11-	=11-	=11-	=11-	=11-	=11-	=11-	=11-
1D	-tres	-gi-	1B-	.	-gi-	1d	.	-gi-
1C,	.	-ni	1c	-tres	-ni	1e	-tres	-ni
=12-	=12-	=12-	=12-	=12-	=12-	=12-	=12-	=12-
1F	Al-	res	1F	Al-	res	2c/	Al-	res
.	.	.	.	.	.	2d/	.	mi-
*	*	*	*lig	*	*	*	*	*
2E/	-le-	mi-	1G	-le-	mi-	1e	-le-	.
2C/	.	.	.	.	.	.	.	.
=13-	=13-	=13-	=13-	=13-	=13-	=13-	=13-	=13-
!LO:SIC:v:t=custos C	!	!	!LO:SIC:v:t=custos G 	!	!	!	!	!
1D	.	.	1F	.	.	1f	.	.
*	*	*	*Xlig	*	*	*	*	*
*	*	*	*lig	*	*	*	*	*
!LO:LB:g=original	!	!	!LO:LB:g=original	!	!	!	!	!
2C/	-lu-	-ran-	1G	.	-ran-	2e/	-lv-	-ran-
2BB-/	.	.	.	.	.	2d/	.	.
=14-	=14-	=14-	=14-	=14-	=14-	=14-	=14-	=14-
2AA/	.	.	1A	.	.	2c/	.	.
!	!	!	!	!	!	!LO:SIC:v:t=custos e	!	!
2FF/	.	.	.	.	.	1d	.	.
*	*	*	*Xlig	*	*	*	*	*
*	*	*	*lig	*	*	*	*	*
1GG	.	.	1B-	.	.	.	.	.
!	!	!	!	!	!	!LO:LB:g=original	!	!
.	.	.	.	.	.	2e/	.	.
=15-	=15-	=15-	=15-	=15-	=15-	=15-	=15-	=15-
2FF/	.	.	1A	.	.	1c	.	.
1F	.	.	.	.	.	.	.	.
*	*	*	*Xlig	*	*	*	*	*
.	.	.	1G	.	.	2d/	.	.
2E/	.	.	.	.	.	1c\	.	.
=16-	=16-	=16-	=16-	=16-	=16-	=16-	=16-	=16-
1D	.	.	1F	.	.	.	.	.
.	.	.	.	.	.	2B-/	.	.
1C	.	.	1E	.	.	1c	.	.
=17-	=17-	=17-	=17-	=17-	=17-	=17-	=17-	=17-
2GG/	.	.	1G	-lu-	.	2d/	.	.
2C/	-i-	.	.	.	.	2c/	-i-	.
!LO:N:vis=0	!	!	!LO:N:vis=0	!	!	!LO:N:vis=0	!	!
1FF;	-ja	-da	1F;	-ia	-da	1c;	-ja	-da
=18-	=18-	=18-	=18-	=18-	=18-	=18-	=18-	=18-
!LO:LB:g=original	!	!	!	!	!	!	!	!
1F	A-	Sol	1F	A-	Sol	1c	A-	sol
*lig	*	*	*lig	*	*	*lig	*	*
1D	-ve	oc	1F	-ve	oc-	1d	-ve	oc-
=19-	=19-	=19-	=19-	=19-	=19-	=19-	=19-	=19-
!	!	!	!	!	!	!LO:SIC:v:t=custos c	!	!
1C	.	.	1G	.	.	1e	.	.
*Xlig	*	*	*Xlig	*	*	*Xlig	*	*
!	!	!	!LO:SIC:v:t=custos F	!	!	!LO:LB:g=original	!	!
1F	vir-	ca-	1A	vir-	-ca-	1c	vir-	-ca-
=20-	=20-	=20-	=20-	=20-	=20-	=20-	=20-	=20-
*	*	*	*lig	*	*	*	*	*
!	!	!	!LO:LB:g=original	!	!	!	!	!
2BB-/	-go	-sum	1F	-go	-ſum	1d	-go	-ſum
1D	.	.	.	.	.	.	.	.
.	.	.	1G	.	.	2B-/	.	.
2C/	e-	qui	.	.	.	1c\	e-	qvi
*	*	*	*Xlig	*	*	*	*	*
=21-	=21-	=21-	=21-	=21-	=21-	=21-	=21-	=21-
2AA/	.	.	1A	e-	qvi	.	.	.
2FF/	.	.	.	.	.	1A	.	.
1GG	.	.	1B-	-le-	ne-	.	.	.
.	.	.	.	.	.	2G/	.	.
=22-	=22-	=22-	=22-	=22-	=22-	=22-	=22-	=22-
2FF/	.	.	1A	.	.	2A/	.	ne-
1F	-le-	ne-	.	.	.	2F/	.	.
.	.	.	1G	.	.	1G	-le-	.
2E/	-cta	-ſcit	.	.	.	.	.	.
=23-	=23-	=23-	=23-	=23-	=23-	=23-	=23-	=23-
1F,	.	.	1A	-cta	-ſcit	1F	-cta	-ſcit
1D	da-	lu-	1A	da-	lu-	1f	da-	lu-
=24-	=24-	=24-	=24-	=24-	=24-	=24-	=24-	=24-
1C	-bis	-ce	1c	-bis	-ce	1e	-bis	-ce
!LO:SIC:v:t=custos D	!	!	!	!	!	!	!	!
1C	in	sed	1c	in	sed	1e	in	sed
=25-	=25-	=25-	=25-	=25-	=25-	=25-	=25-	=25-
*	*	*	*lig	*	*	*	*	*
!LO:LB:g=original	!	!	!	!	!	!LO:SIC:v:t=custos e	!	!
2D/	quit	cun-	1A	qvit	cvn-	1d	qvit	cu(n)-
*2\right	*	*	*	*	*	*	*	*
2F\	.	.	.	.	.	.	.	.
!	!	!	!	!	!	!LO:LB:g=original	!	!
1E	.	.	1G	.	.	1e	.	.
*	*	*	*Xlig	*	*	*	*	*
=26-	=26-	=26-	=26-	=26-	=26-	=26-	=26-	=26-
1D	.	-cta	1A	.	.	1f	.	.
!	!	!	!LO:SIC:v:t=custos A	!	!	!	!	!
1BB-	fi-	ve-	1B-	fi-	-cta	1d	fi-	-cta
=27-	=27-	=27-	=27-	=27-	=27-	=27-	=27-	=27-
*lig	*	*	*lig	*	*	*	*	*
!	!	!	!LO:PB:g=original	!	!	!	!	!
1F	-li-	.	1A	-li-	ve-	2c/	-li-	ve-
.	.	.	.	.	.	1f	.	.
1C	.	.	1G	-um	.	.	.	.
.	.	.	.	.	.	2e/	.	.
*Xlig	*	*	*Xlig	*	*	*	*	*
=28-	=28-	=28-	=28-	=28-	=28-	=28-	=28-	=28-
1FF,	-um	-stit	1A	.	-ſtit	1f	-vm	-stit
1F	so-	val-	1F	so-	val-	1f	so-	val-
=29-	=29-	=29-	=29-	=29-	=29-	=29-	=29-	=29-
*lig	*	*	*lig	*	*	*lig	*	*
1C	-lem	-de	1G	-lem	-de	1e	-lem	-de
1D	.	.	1F	.	.	1d	.	.
*Xlig	*	*	*Xlig	*	*	*Xlig	*	*
=30-	=30-	=30-	=30-	=30-	=30-	=30-	=30-	=30-
*	*	*	*lig	*	*	*	*	*
0C	stel-	cla-	1G	stel-	cla-	1e	stel-	cla-
.	.	.	1A	.	.	1e	.	.
*	*	*	*Xlig	*	*	*	*	*
=31-	=31-	=31-	=31-	=31-	=31-	=31-	=31-	=31-
*	*	*	*lig	*	*	*	*	*
2GG/	.	.	1B-	.	.	1d	.	.
1G	.	.	.	.	.	.	.	.
.	.	.	1A	.	.	2e\	.	.
!	!	!	!	!	!	!LO:SIC:v:t=custos d	!	!
2F\	.	.	.	.	.	2f\	.	.
*	*	*	*Xlig	*	*	*	*	*
=32-	=32-	=32-	=32-	=32-	=32-	=32-	=32-	=32-
!	!	!	!	!	!	!LO:LB:g=original	!	!
2G\	.	.	1G	.	.	2d/	.	.
!LO:SIC:v:t=custos F	!	!	!	!	!	!	!	!
2E/	.	.	.	.	.	2e/	.	.
!LO:PB:g=original	!	!	!	!	!	!	!	!
1F	.	.	1F	.	.	1c	.	.
=33-	=33-	=33-	=33-	=33-	=33-	=33-	=33-	=33-
0C	-la	-ra	1E	.	.	0c	-la	-ra
.	.	.	1G	-la	-ra	.	.	.
=34-	=34-	=34-	=34-	=34-	=34-	=34-	=34-	=34-
!	!	!	!LO:SIC:v:t=custos F	!	!	!	!	!
0FF;	.	.	0F;	.	.	0c;	.	.
=35-	=35-	=35-	=35-	=35-	=35-	=35-	=35-	=35-
*clefF3	*	*	*	*	*	*	*	*
!	!	!	!LO:LB:g=original	!	!	!	!	!
1F	si-	Vt	1F	si-	Vt	1c	si-	Vt
*	*	*	*lig	*	*	*	*	*
1G	-cut	nec	1E	-cut	nec	0c	-cut	nec
=36-	=36-	=36-	=36-	=36-	=36-	=36-	=36-	=36-
1A	.	.	1F	.	.	.	.	.
*	*	*	*Xlig	*	*	*	*	*
2A\	si-	sij-	1D	si-	si-	1d	si-	si-
2B-\	.	-dus	.	.	.	.	.	.
=37-	=37-	=37-	=37-	=37-	=37-	=37-	=37-	=37-
1c	-dus	.	1C	-dus	-dus	1e	-dus	-dus
!	!	!	!	!	!	!LO:SIC:v:t=custos c	!	!
2B-\	.	.	1D	.	.	1f	.	.
!LO:SIC:v:t=custos F	!	!	!	!	!	!	!	!
1A\	ra-	ra-	.	.	.	.	.	.
=38-	=38-	=38-	=38-	=38-	=38-	=38-	=38-	=38-
!	!	!	!	!	!	!LO:PB:g=original	!	!
.	.	.	1F	ra-	ra-	2c/	ra-	rad-
*clefF4	*	*	*	*	*	*	*	*
!LO:LB:g=original	!	!	!	!	!	!	!	!
1F	-di-	-di-	.	.	.	1d	-di-	.
*	*	*	*lig	*	*	*	*	*
.	.	.	1G	-di-	-di-	.	.	.
2E/	.	.	.	.	.	2e/	.	.
=39-	=39-	=39-	=39-	=39-	=39-	=39-	=39-	=39-
*lig	*	*	*	*	*	*	*	*
1F	.	-o	1F	.	.	1c	.	.
*	*	*	*Xlig	*	*	*	*	*
1BB-	.	.	1F	-um	-o	1d	-vm	-io
*Xlig	*	*	*	*	*	*	*	*
=40-	=40-	=40-	=40-	=40-	=40-	=40-	=40-	=40-
2BB-/	-um	ne-	1F	i-	ne-	2d/	.	.
2AA/	.	-(que)	.	.	.	2e,/	.	.
*	*	*	*lig	*	*	*	*	*
1D	i-	.	1F	-gnes	-(que)	1f	i-	ne-
=41-	=41-	=41-	=41-	=41-	=41-	=41-	=41-	=41-
1C	-gnes	.	1G	.	.	1e	-gnes	-(que)
*	*	*	*Xlig	*	*	*	*	*
!	!	!	!LO:SIC:v:t=custos F	!	!	!	!	!
2FF/	.	.	1A	vir-	ma-	1c	.	.
1F\	vir-	ma-	.	.	.	.	.	.
=42-	=42-	=42-	=42-	=42-	=42-	=42-	=42-	=42-
!	!	!	!LO:LB:g=original	!	!	!	!	!
.	.	.	1F	-go	-ter	1f	vir-	ma-
2D/	-go	-ter	.	.	.	.	.	.
2E/	.	.	1G	fi-	.	1e	-go	-ter
1C/	.	fi-	.	.	.	.	.	.
=43-	=43-	=43-	=43-	=43-	=43-	=43-	=43-	=43-
*	*	*	*lig	*	*	*	*	*
.	.	.	1A	-li-	fi-	2e/	.	.
1D	fi-	-li-	.	.	.	2d/	fi-	fi-
!	!	!	!	!	!	!LO:SIC:v:t=custos g	!	!
.	.	.	1B-	.	-li-	2f\	.	.
!	!	!	!	!	!	!LO:LB:g=original	!	!
2E/	.	.	.	.	.	1g\	.	.
*	*	*	*Xlig	*	*	*	*	*
=44-	=44-	=44-	=44-	=44-	=44-	=44-	=44-	=44-
!LO:SIC:v:t=custos C	!	!	!	!	!	!	!	!
*	*	*	*lig	*	*	*	*	*
1F	-li-	.	1A	.	.	.	.	.
.	.	.	.	.	.	1f	.	.
!LO:LB:g=original	!	!	!	!	!	!	!	!
1C	.	-o-	1G	.	.	.	.	.
.	.	.	.	.	.	2e\	.	.
*	*	*	*Xlig	*	*	*	*	*
=45-	=45-	=45-	=45-	=45-	=45-	=45-	=45-	=45-
1FF	.	.	1A	-um	-o-	1f	-li-	-li-
1F	-um	-sis	1F	pa-	-ſis	1f	-um	-o-
=46-	=46-	=46-	=46-	=46-	=46-	=46-	=46-	=46-
*	*	*	*lig	*	*	*lig	*	*
1C	pa-	cor-	1G	-ri	co-	1e	pa-	-sis
1D	-ri	-rv-	1F	.	.	1d	-ri	.
*	*	*	*Xlig	*	*	*Xlig	*	*
=47-	=47-	=47-	=47-	=47-	=47-	=47-	=47-	=47-
*	*	*	*lig	*	*	*	*	*
2C/	.	.	1G	for-	-ru-	1e	.	co-
2BB-/	.	.	.	.	.	.	.	.
1AA	for-	.	1A	.	.	2e/	for-	-ru-
.	.	.	.	.	.	2c/	.	.
*	*	*	*Xlig	*	*	*	*	*
=48-	=48-	=48-	=48-	=48-	=48-	=48-	=48-	=48-
2GG/	.	.	1B-	.	.	1d	.	.
1G	.	.	.	.	.	.	.	.
.	.	.	1A	.	.	2e/	.	.
2F\	.	.	.	.	.	2f\	.	.
=49-	=49-	=49-	=49-	=49-	=49-	=49-	=49-	=49-
2G\	.	.	1G	.	.	2d/	.	.
2E/	.	.	.	.	.	2e/	.	.
!	!	!	!LO:SIC:v:t=custos C	!	!	!LO:SIC:v:t=custos c	!	!
1F	.	.	1F	.	.	1c	.	.
=50-	=50-	=50-	=50-	=50-	=50-	=50-	=50-	=50-
!	!	!	!LO:LB:g=original	!	!	!LO:LB:g=original	!	!
0C	-ma	-pta	1C	.	.	0c	.	.
.	.	.	1E	-ma	-pta	.	.	.
=51-	=51-	=51-	=51-	=51-	=51-	=51-	=51-	=51-
!LO:SIC:v:t=custos C	!	!	!LO:TX:a:t=[vide]	!	!	!LO:TX:a:t=[vide]	!	!
0FF;	.	.	0D;	.	.	0c;	-ma	-pta
*	*	*	*	*	*	*clefC2	*	*
=52-	=52-	=52-	=52-	=52-	=52-	=52-	=52-	=52-
*	*	*	*	*	*	*k[b-]	*	*
!LO:LB:g=original	!	!	!	!	!	!	!	!
2C/	Vir-	Gra-	1c	Vir-	Gra-	2e/	Vir-	Gra-
1F	-tus	-ci-	.	.	.	1a	-tus	.
.	.	.	1c	-tus	-ci-	.	.	.
2E/	.	.	.	.	.	2g/	.	-ci-
=53-	=53-	=53-	=53-	=53-	=53-	=53-	=53-	=53-
1D	ſu-	-a	1d	ſu-	-a	2.f/	ſu-	-a
.	.	.	.	.	.	4e/	-(u)m	.
2G\	-(u)m	quod	1B-	-(u)m	quod	2d/	.	quod
2E/	.	.	.	.	.	1g\	nu-	.
=54-	=54-	=54-	=54-	=54-	=54-	=54-	=54-	=54-
2C/	nu-	di-	1c	nu-	di-	.	.	.
2F\	.	-gna	.	.	.	2a\	.	.
*	*	*	*lig	*	*	*	*	*
1G	-mi-	.	1B-	-mi-	-gna-	2g/	.	di-
.	.	.	.	.	.	1g\	-mi-	.
=55-	=55-	=55-	=55-	=55-	=55-	=55-	=55-	=55-
*lig	*	*	*	*	*	*	*	*
1D	.	.	1A	.	.	.	.	.
.	.	.	.	.	.	2f/	-nis	.
*	*	*	*Xlig	*	*	*	*	*
1E	.	.	1G	.	.	2g/	.	-gna-
.	.	.	.	.	.	2e/	.	.
*Xlig	*	*	*	*	*	*	*	*
=56-	=56-	=56-	=56-	=56-	=56-	=56-	=56-	=56-
1F	-nis	ſis	1A	-nis	-ſis	2.c/	fa-	-sis
.	.	.	.	.	.	4d/	.	.
1C	fa-	pa-	1c	fa-	pa-	4e/	.	.
!	!	!	!	!	!	!LO:SIC:v:t=custos g	!	!
.	.	.	.	.	.	4f/	.	.
!	!	!	!	!	!	!LO:LB:g=original	!	!
.	.	.	.	.	.	1g\	-ci-	pa-
=57-	=57-	=57-	=57-	=57-	=57-	=57-	=57-	=57-
*lig	*	*	*lig	*	*	*	*	*
1D	-cti	-tris	1B-	-ci	-tris	.	.	.
.	.	.	.	.	.	2f/	-eſ	-tris
!LO:SIC:v:t=custos D	!	!	!	!	!	!	!	!
1E	.	.	1A	.	.	1g	.	.
*Xlig	*	*	*Xlig	*	*	*	*	*
=58-	=58-	=58-	=58-	=58-	=58-	=58-	=58-	=58-
!LO:LB:g=original	!	!	!	!	!	!	!	!
2.D/	et	ve-	1A	.	ve-	2r	.	.
.	.	.	.	.	.	1f	hec	ve-
4C/	hec	.	.	.	.	.	.	.
1BB-	.	-nit	1B-	et	-nit	.	.	.
.	.	.	.	.	.	4e/	.	.
.	.	.	.	.	.	4d/	.	.
=59-	=59-	=59-	=59-	=59-	=59-	=59-	=59-	=59-
*lig	*	*	*lig	*	*	*	*	*
1FF	om-	fi-	1A	hec	.	2c/	.	-nit
.	.	.	.	.	.	1f	om-	.
1C	.	.	1G	.	.	.	.	.
.	.	.	.	.	.	2e/	.	fi-
*Xlig	*	*	*Xlig	*	*	*	*	*
=60-	=60-	=60-	=60-	=60-	=60-	=60-	=60-	=60-
*lig	*	*	*lig	*	*	*	*	*
1D	.	-li-	1F	om-	fi-	2f/	.	.
.	.	.	.	.	.	2a\	.	.
1E	.	-us	1G	.	.	2g\	.	.
.	.	.	.	.	.	2e/	.	.
*Xlig	*	*	*Xlig	*	*	*	*	*
=61-	=61-	=61-	=61-	=61-	=61-	=61-	=61-	=61-
*	*	*	*lig	*	*	*	*	*
1D	-ni-	.	1A	.	.	2f/	.	.
.	.	.	.	.	.	1a	.	.
!	!	!	!LO:SIC:v:t=custos A	!	!	!	!	!
1G	-a	.	1B-	.	.	.	.	.
!	!	!	!	!	!	!LO:SIC:v:t=custos a	!	!
.	.	.	.	.	.	2g/	.	.
*	*	*	*Xlig	*	*	*	*	*
=62-	=62-	=62-	=62-	=62-	=62-	=62-	=62-	=62-
!	!	!	!LO:LB:g=original	!	!	!LO:LB:g=original	!	!
2r	.	.	1A	-ni-	-li-	2a\	-ni-	-li-
1D	val-	car-	.	.	.	1f	-a	-us
.	.	.	1A	-a	-us	.	.	.
2C/	-le	-ne	.	.	.	2e/	.	.
=63-	=63-	=63-	=63-	=63-	=63-	=63-	=63-	=63-
1BB-	.	.	1B-	val-	car-	2.d/	val-	car-
.	.	.	.	.	.	4e/	-le	-ne
*	*	*	*lig	*	*	*	*	*
2FF/	.	.	1A	-le	-ne	2f/	.	.
1F\	no-	ſum-	.	.	.	4c/	.	ſum-
.	.	.	.	.	.	4d/	no-	.
=64-	=64-	=64-	=64-	=64-	=64-	=64-	=64-	=64-
.	.	.	1G	.	.	4e/	.	.
.	.	.	.	.	.	4f/	.	.
*	*	*	*Xlig	*	*	*	*	*
!LO:SIC:v:t=custos D	!	!	!	!	!	!	!	!
2E/	.	.	.	.	.	2g\	.	.
*	*	*	*lig	*	*	*	*	*
!LO:PB:g=original	!	!	!	!	!	!	!	!
1D	.	.	1F	.	.	1a	.	.
=65-	=65-	=65-	=65-	=65-	=65-	=65-	=65-	=65-
0C	.	.	1E	.	.	2g\	.	.
.	.	.	.	.	.	1f	.	.
*	*	*	*Xlig	*	*	*	*	*
.	.	.	1G	no-	ſum-	.	.	.
.	.	.	.	.	.	2e/	.	.
=66-	=66-	=66-	=66-	=66-	=66-	=66-	=66-	=66-
!	!	!	!LO:SIC:v:t=custos d	!	!	!	!	!
2D/	.	.	00.F;	-(str)a	-pta	00.f;	-stra	-pta
1BB-	.	.	.	.	.	.	.	.
2AA/	.	.	.	.	.	.	.	.
=67-	=67-	=67-	=67-	=67-	=67-	=67-	=67-	=67-
1D	.	.	.	.	.	.	.	.
1BB-	-stra	-pta	.	.	.	.	.	.
=68-	=68-	=68-	=68-	=68-	=68-	=68-	=68-	=68-
0FF;	.	.	.	.	.	.	.	.
=69-	=69-	=69-	=69-	=69-	=69-	=69-	=69-	=69-
*	*	*	*clefC3	*	*	*clefC3	*	*
1C	I-	Si	1c	I-	Si	1c	I-	Si
1C	-sa-	non	1c	-sa-	non	2G/	-sa-	non
.	.	.	.	.	.	1c\	.	.
=70-	=70-	=70-	=70-	=70-	=70-	=70-	=70-	=70-
!LO:SIC:v:t=custos F	!	!	!	!	!	!	!	!
1G	-ij-	sv-	1d	-i-	su-	.	.	.
.	.	.	.	.	.	2B-/	-ias	su-
!LO:LB:g=original	!	!	!	!	!	!	!	!
1F	-as	-is	1f	-as	-is	1c,	.	-is
=71-	=71-	=71-	=71-	=71-	=71-	=71-	=71-	=71-
1G	ce-	va-	1d	ce-	va-	1g	ce-	va-
1G	-ci-	-li-	1B-	-ci-	-ti-	1g	-ci-	-ti-
=72-	=72-	=72-	=72-	=72-	=72-	=72-	=72-	=72-
!	!	!	!LO:SIC:v:t=custos f	!	!	!	!	!
1C	-nit	-bus	1c	-nit	-bus	1e	-nit	-bus
!	!	!	!LO:LB:g=original	!	!	!	!	!
1D	vir-	cre-	1f	vir-	cre-	1d	si-	cre-
=73-	=73-	=73-	=73-	=73-	=73-	=73-	=73-	=73-
!	!	!	!	!	!	!LO:SIC:v:t=custos d	!	!
1BB-	-go	-dat	1d	-go	-dat	1f	-na-	-dat
!	!	!	!	!	!	!LO:LB:g=original	!	!
1D	pro-	vel-	1f	pro-	vel	1d	-go-	vel-
=74-	=74-	=74-	=74-	=74-	=74-	=74-	=74-	=74-
1C,	-lem	-gen-	1c	-lem	gen-	2e/	-ga	-gen-
.	.	.	.	.	.	1g	.	.
2E/	par-	-ti-	1c	par-	-ti-	.	.	.
2F/	-tu-	-li-	.	.	.	2f\	me-	-ti-
=75-	=75-	=75-	=75-	=75-	=75-	=75-	=75-	=75-
*	*	*	*lig	*	*	*	*	*
2G\	.	.	1B-	-tu-	-li-	2d/	.	-li-
2E/	.	.	.	.	.	2e/	.	.
*lig	*	*	*	*	*	*	*	*
1F	.	.	1A	.	.	1c	.	.
*	*	*	*Xlig	*	*	*	*	*
=76-	=76-	=76-	=76-	=76-	=76-	=76-	=76-	=76-
1C	.	.	1G	.	.	1c	.	.
*Xlig	*	*	*	*	*	*	*	*
!LO:SIC:v:t=custos C	!	!	!	!	!	!	!	!
1FF	-rit	-bus	1A	-rit	-bus	2c/	.	.
.	.	.	.	.	.	1f\	-mi-	.
=77-	=77-	=77-	=77-	=77-	=77-	=77-	=77-	=77-
!LO:LB:g=original	!	!	!	!	!	!	!	!
1C	con-	si-	1c	con-	si-	.	.	.
.	.	.	.	.	.	2e/	-nit	-bus
*	*	*	*lig	*	*	*	*	*
2FF/	-tem-	-bi-	1A	-tem-	-bi-	1f	.	.
1F\	.	.	.	.	.	.	.	.
=78-	=78-	=78-	=78-	=78-	=78-	=78-	=78-	=78-
.	.	.	1G	.	.	2d/	con-	si-
2E/	.	.	.	.	.	2e/	-tem-	-bi-
*	*	*	*Xlig	*	*	*	*	*
2D/	.	.	1A	-vit	-li-	2f\	.	-li-
!	!	!	!	!	!	!LO:SIC:v:t=custos d	!	!
2C/	.	-li-	.	.	.	2e/	.	-nis
=79-	=79-	=79-	=79-	=79-	=79-	=79-	=79-	=79-
!	!	!	!LO:SIC:v:t=custos A	!	!	!LO:LB:g=original	!	!
1BB-	-vit	-nis	1B-	.	.	1d	-vit	.
*	*	*	*clefC4	*	*	*	*	*
*lig	*	*	*	*	*	*	*	*
*	*	*	*lig	*	*	*	*	*
!	!	!	!LO:PB:g=original	!	!	!	!	!
1F	ge(n)s	ver-	1A	gens	-nis	1c	gens	.
=80-	=80-	=80-	=80-	=80-	=80-	=80-	=80-	=80-
1C	.	.	1G	.	.	2e/	He-	.
.	.	.	.	.	.	1g	.	ver-
*Xlig	*	*	*Xlig	*	*	*	*	*
*lig	*	*	*lig	*	*	*	*	*
1D	He-	.	1F	He-	ver-	.	.	.
.	.	.	.	.	.	1f\	.	.
=81-	=81-	=81-	=81-	=81-	=81-	=81-	=81-	=81-
1C	.	.	1G	.	.	.	.	.
.	.	.	.	.	.	2e/	.	.
*Xlig	*	*	*Xlig	*	*	*	*	*
*	*	*	*lig	*	*	*	*	*
2FF/	.	.	1A	.	.	1f	.	.
1F\	.	.	.	.	.	.	.	.
=82-	=82-	=82-	=82-	=82-	=82-	=82-	=82-	=82-
.	.	.	1B-	.	.	2d/	.	.
2E/	.	.	.	.	.	2e/	.	-ſi-
*	*	*	*Xlig	*	*	*	*	*
1F	-bre-	-ſi-	1A	-bre-	-si-	1c	-bre-	-bus
=83-	=83-	=83-	=83-	=83-	=83-	=83-	=83-	=83-
1F	-a	-bus	1A	-a	-bus	1c	-a	.
!LO:SIC:v:t=custos D	!	!	!	!	!	!	!	!
1BB-	vſ-	Hec	1B-	vſ-	hec	1d	vſ-	Hec
=84-	=84-	=84-	=84-	=84-	=84-	=84-	=84-	=84-
*	*	*	*lig	*	*	*	*	*
!LO:LB:g=original	!	!	!	!	!	!	!	!
2D/	-(que)	pre-	1A	-(que)	pre-	2d/	-(que)	pre-
1F	.	.	.	.	.	1c	.	.
.	.	.	1G	.	.	.	.	.
2E/	.	.	.	.	.	1c\	.	.
*	*	*	*Xlig	*	*	*	*	*
=85-	=85-	=85-	=85-	=85-	=85-	=85-	=85-	=85-
*	*	*	*lig	*	*	*	*	*
1D	.	.	1F	.	.	.	.	.
!	!	!	!	!	!	!LO:SIC:v:t=custos c	!	!
.	.	.	.	.	.	2B-/	.	.
!	!	!	!	!	!	!LO:PB:g=original	!	!
1C	ce-	.	1E	.	.	1c	ce-	-di-
*	*	*	*Xlig	*	*	*	*	*
=86-	=86-	=86-	=86-	=86-	=86-	=86-	=86-	=86-
1C	-ca	-di-	1G	ce-	-di-	0c	-ca	-cta
!	!	!	!LO:SIC:v:t=custos C	!	!	!	!	!
0.FF;	.	-cta	0.F;	-ca	-cta	.	.	.
=87-	=87-	=87-	=87-	=87-	=87-	=87-	=87-	=87-
.	.	.	.	.	.	0c;	.	.
=88-	=88-	=88-	=88-	=88-	=88-	=88-	=88-	=88-
!	!	!	!LO:LB:g=original	!	!	!	!	!
1C	In-	Na-	1C	In-	na-	1c	In-	Na-
2BB-/	-fe-	-tum	1F	-fe-	-tu(m)	1d	-fe-	-tum
1D\	-lix	con-	.	.	.	.	.	.
=89-	=89-	=89-	=89-	=89-	=89-	=89-	=89-	=89-
*	*	*	*lig	*	*	*	*	*
.	.	.	1G	-lix	con-	2B-/	-lix	con-
2C/	.	.	.	.	.	1c	.	.
!LO:SIC:v:t=custos C	!	!	!	!	!	!	!	!
1D	.	.	1F	.	.	.	.	.
.	.	.	.	.	.	2B-/	.	.
*	*	*	*Xlig	*	*	*	*	*
=90-	=90-	=90-	=90-	=90-	=90-	=90-	=90-	=90-
!LO:LB:g=original	!	!	!	!	!	!	!	!
1C	.	.	1G	.	.	1c	.	.
!	!	!	!	!	!	!LO:SIC:v:t=custos d	!	!
2C/	pro-	-si-	1E	pro-	-si-	1c	pro-	-si-
2AA/	.	-de-	.	.	.	.	.	.
=91-	=91-	=91-	=91-	=91-	=91-	=91-	=91-	=91-
!	!	!	!	!	!	!LO:LB:g=original	!	!
2BB-/	-pe-	.	1G	-pe-	-de-	2d/	-pe-	-de-
2C/	-ra	-ra	.	.	.	2e\	-ra	-ra
1FF,<	.	.	1F	-ra	-ra	1f,	.	.
=92-	=92-	=92-	=92-	=92-	=92-	=92-	=92-	=92-
1C	cre-	quem	1C	cre-	quem	1e	cre-	quem
2BB-/	-de	.	1F	-de	do-	2d/	-de	.
1D\	vel	do-	.	.	.	1f\	.	do-
=93-	=93-	=93-	=93-	=93-	=93-	=93-	=93-	=93-
*	*	*	*lig	*	*	*	*	*
.	.	.	1G	vel	-cet	.	.	.
2C/	.	-cet	.	.	.	2e\	vel	-cet
1D	.	.	1F	.	.	1f	.	.
*	*	*	*Xlig	*	*	*	*	*
=94-	=94-	=94-	=94-	=94-	=94-	=94-	=94-	=94-
!	!	!	!LO:SIC:v:t=custos E	!	!	!	!	!
1C	.	.	1G	.	.	1e	.	.
!	!	!	!LO:LB:g=original	!	!	!	!	!
2C/	.	lit-	1E	ve-	lit-	2e\	ve-	lit-
2AA/	ve-	-te-	.	.	.	2c/	.	.
=95-	=95-	=95-	=95-	=95-	=95-	=95-	=95-	=95-
!LO:SIC:v:t=custos C	!	!	!	!	!	!	!	!
2BB-/	-te-	.	1G	-te-	-te-	2d/	-te-	-te-
!LO:PB:g=original	!	!	!	!	!	!	!	!
2C/	.	.	.	.	.	2e/	-ra	-ra
!	!	!	!	!	!	!LO:SIC:v:t=custos f	!	!
1FF	-ra	-ra	1F	-ra	-ra	1f	.	.
=96-	=96-	=96-	=96-	=96-	=96-	=96-	=96-	=96-
!	!	!	!	!	!	!LO:LB:g=original	!	!
1F	cur	i-	1A	cur	i-	1f	cur	i-
2E/	dam-	-psum	1c	dam-	-psum	0g	dam-	-psum
2C/	-na	ge-	.	.	.	.	.	.
=97-	=97-	=97-	=97-	=97-	=97-	=97-	=97-	=97-
1G	.	-nu-	1B-	-na	con-	.	.	.
*	*	*	*lig	*	*	*	*	*
2D/	be-	-it	1A	be-	-ce-	1f	-na	con-
1F\	-ris	.	.	.	.	.	.	.
=98-	=98-	=98-	=98-	=98-	=98-	=98-	=98-	=98-
.	.	.	1G	.	.	2d/	be-	-ce-
2E/	.	.	.	.	.	1g	-ris	.
*lig	*	*	*Xlig	*	*	*	*	*
1D	gens	pue-	1F	-ris	-pit	.	.	.
.	.	.	.	.	.	1f\	.	.
=99-	=99-	=99-	=99-	=99-	=99-	=99-	=99-	=99-
*	*	*	*lig	*	*	*	*	*
1C	.	.	1G	gens	pue-	.	.	.
.	.	.	.	.	.	2e\	.	-pit
*Xlig	*	*	*	*	*	*	*	*
*lig	*	*	*	*	*	*	*	*
1D	mi-	.	1F	.	.	1f	gens	pue-
*	*	*	*Xlig	*	*	*	*	*
=100-	=100-	=100-	=100-	=100-	=100-	=100-	=100-	=100-
1C	.	.	1G	.	.	1e	.	.
*Xlig	*	*	*	*	*	*	*	*
2C/	-se-	.	1E	mi-	-rpe-	2e\	mi-	.
2AA/	.	.	.	.	.	2c/	-se-	.
=101-	=101-	=101-	=101-	=101-	=101-	=101-	=101-	=101-
2BB-/	.	-pe-	1G	-se-	-ra	2d/	.	.
2C/	.	-ra	.	.	.	2c/	.	-pe-
!LO:SIC:v:t=custos C	!	!	!LO:SIC:v:t=custos E	!	!	!LO:SIC:v:t=custos c	!	!
1FF;	-ra	.	1F;	-ra	.	1c;	-ra	-ra
=102-	=102-	=102-	=102-	=102-	=102-	=102-	=102-	=102-
!LO:LB:g=original	!	!	!LO:LB:g=original	!	!	!LO:LB:g=original	!	!
1C	Ma-	.	1E	Ma-	.	1c	Ma-	.
*	*	*	*lig	*	*	*	*	*
2GG/	-ri	.	1G	-ri-	.	2B-/	.	.
1BB-/	.	.	.	.	.	1d\	.	.
=103-	=103-	=103-	=103-	=103-	=103-	=103-	=103-	=103-
.	.	.	1F	.	.	.	.	.
2AA/	.	.	.	.	.	2c/	.	.
*	*	*	*Xlig	*	*	*	*	*
1GG	.	.	1G	.	.	1B-	.	.
=104-	=104-	=104-	=104-	=104-	=104-	=104-	=104-	=104-
2FF/	.	.	1A	.	.	2A/	.	.
1F	.	.	.	.	.	2F/	.	.
.	.	.	1B-	.	.	1G	.	.
2E/	.	.	.	.	.	.	.	.
=105-	=105-	=105-	=105-	=105-	=105-	=105-	=105-	=105-
1F	.	.	1A	.	.	2F/	.	.
.	.	.	.	.	.	1f	.	.
*lig	*	*	*	*	*	*	*	*
1C	.	.	1G	.	.	.	.	.
.	.	.	.	.	.	2e/	.	.
=106-	=106-	=106-	=106-	=106-	=106-	=106-	=106-	=106-
1D	.	.	1F	.	.	1d	.	.
*Xlig	*	*	*	*	*	*	*	*
0C	.	.	1E	.	.	2e/	.	.
.	.	.	.	.	.	1c\	-ri-	.
=107-	=107-	=107-	=107-	=107-	=107-	=107-	=107-	=107-
.	.	.	1G	.	.	.	.	.
.	.	.	.	.	.	2c/	-a	.
1FF;	.	.	1F;	-a	.	1c;;	.	.
=-	=-	=-	=-	=-	=-	=-	=-	=-
*-	*-	*-	*-	*-	*-	*-	*-	*-
!!!system-decoration: [(s1,s2,s3)]
!!!AIN: 1 bass 1 tenor 1 vox
!!!ENC: Anastazja Marusiak
!!!END: 2022-01-17
!!!ENC: Marta Chmielewska
!!!END: 2022-01-25
